img/vector-20.svg

<svg fill="none" height="44" viewBox="0 0 117 44" width="117" xmlns="http://www.w3.org/2000/svg"><path d="m33.0717 38.0353-30.94413-27.4686c-2.308811-2.04945-2.268175-5.67259.08594-7.66348 1.41297-1.19495 3.36543-1.51994 5.09025-.84727l42.08954 16.41465c5.6602 2.2075 11.9746 1.982 17.4574-.6233l34.6283-16.45478c3.427-1.62803 7.529-.37656 9.475 2.88993l5.802 9.74125-59.8221 27.5614c-7.9468 3.6612-17.3074 2.2687-23.8622-3.5498z" fill="#241ed3"/></svg>

<svg width="117" height="44" viewBox="0 0 117 44" fill="none" xmlns="http://www.w3.org/2000/svg">
<path d="M33.0717 38.0353L2.12757 10.5667C-0.181241 8.51725 -0.140605 4.89411 2.21351 2.90322C3.62648 1.70827 5.57894 1.38328 7.30376 2.05595L49.3933 18.4706C55.0535 20.6781 61.3679 20.4526 66.8507 17.8473L101.479 1.39252C104.906 -0.23551 109.008 1.01596 110.954 4.28245L116.756 14.0237L56.9339 41.5851C48.9871 45.2463 39.6265 43.8538 33.0717 38.0353Z" fill="#241ED3"/>
</svg>
